X:1
T:Title
%%score ( 1 2 ) { 3 | 4 }
L:1/8
Q:1/4=100
M:4/4
K:Eb
V:1 treble nm="Grand Piano, Soprano"
V:2 treble 
V:3 bass nm="Choir Pad, God�s Peace I�ll Know"
V:4 bass 
V:1
 [EG] [EG]2 [DG]- [DG] [CG]3 | [B,G]GFC G [DF]3 | [DF] [DF]2 [CF]- [CF] [DF]3 | [CF]FED F [B,E]3 | %4
w: By~Ira~Allan~Sankey * * * *||||
 [EG] [EG]2 [DG]- [DG] [CG]3 | [_D_G]F=EF c [=DB]3 | [DF][EG][E=A][EB] [Ec] [DB]2 [EA]- | %7
w: |||
 [EA] B2 _A- A F2 _G- | G [E=G]3- [EG] [FG]2 [FG]- | [FG] [=EG]3- [EG]2- [EG]/ z/ [EG]- | %10
w: |||
 [EG] _G2 =G- G A2 [=EG]- | [EG] G3- G F2 [EF]- | [EF] [DF]3- [DF] [DF]3- | %13
w: |||
 [DF][DA][DA][DG] [D_G] G2 =G | [EB] c2 d [Ec] [EB]3 | E [EA]2 [FB] [DA] [EG]3 | %16
w: |||
 [EG]FGA [EG] [EF]3 | [EF]FGA [EG] [EF]3- | [EF] [EB]3- [EB] [EG]2 [B,E]- | %19
w: |||
 [B,E] [EG]2 C- C/ z/ [DF]3 | E [B,E]3- [B,E]4- | [B,E]2 z2 z4 |] %22
w: |||
V:2
 x8 | z .C3 z4 | x8 | z B,2 B,- B,/ z/ z z2 | x8 | z =D2 _E- E/ z/ z z2 | x8 | z D3- D4- | %8
 D z z2 z4 | x8 | z =E3- E2- E/ z/ z | z _E3- E2- E/ z/ z | x8 | z4 z E3 | z E3 z4 | x8 | %16
 z .E3 z4 | z E3 z4 | x8 | x8 | x8 | x8 |] %22
V:3
 B, B,2 B,- B, B,3 | E, A,2 A,- A, A,3 | A, A,2 A,- A, A,3 | A, G,2 F, A, G,3 | B, B,2 B,- B, B,3 | %5
 B, B,2 =A,- A, B,3 | B,B,B,G, G, F,2 C- | C B,3- B,4- | B, B,3- B, B,2 B,- | %9
 B, B,3- B,2- B,/ z/ B,- | B, =A,2 B,- B, C2 B,- | B, =A,3- A,2- A,/ z/ A,- | A, B,3- B, B,3- | %13
 B,[K:treble]CCC =A, A,2[K:bass] B, | B, A,3 A, B,3 | B, C2 B, B, B,3 | B,[K:treble] C3 C C3 | %17
 =B, B,3[K:bass] B, B,3- | B, G,3- G, _B,2 G,- | G, =A,3- A, _A,3 | G, G,3- G,4- | G,2 z2 z4 |] %22
V:4
 E, E,2 E,- E, E,3 | z A,,2 A,,- A,, B,,3 | B,, B,,2 B,,- B,, B,,3 | B,, B,,2 B,,- B,,/ z/ E,3 | %4
 E, E,2 E,- E, E,3 | =E, F,2 F,- F, B,,3 | B,,E,E,E, .E,2 z F,- | F, B,,3- B,,4- | %8
 B,, E,3- E, D,2 D,- | D, C,3- C,2- C,/ z/ C,- | C, C,3- C,2- C,/ z/ C,- | %11
 C, F,,3- F,,2- F,,/ z/ F,,- | F,, B,,3- B,, B,,3- | B,,B,,B,,B,, B,, E,3 | .G,2 z2 z G,3 | %15
 G, F,2 D, B,, E,3 | E,A,G,F, G, A,3 | A,A,G,F, G, A,2 A,,- | A,, B,,3- B,, B,,3- | %19
 B,, F,,3- F,, B,,3 | E, E,3- E,4- | E,2 z2 z4 |] %22

